svgs/svgItems/112_HazmatSuitRightUp.svg

<svg xmlns="http://www.w3.org/2000/svg" viewBox="0 0 50 24"  xmlns:v="https://vecta.io/nano"><path d="M4.964 7.004v-1h1v-5h-1v1h-4v-1h-1v4h1v1h2v1h2zm0-7h-4v1h4v-1z"/><path d="M7.964 9.004v-6h-1v-1h-1v4h-1v1h1v1h1v1h1z" fill="#ff0"/><path d="M7.964 10.004v-1h-1v1h1zm-1-2h-1v1h1v-1zm-1-1h-1v1h1v-1zm2-4v-1h-1v1h1zm-1-2h-1v1h1v-1z" fill="#d8d800"/><path d="M.964 1.004h4v1h-4z" fill="#666"/></svg>

<svg xmlns="http://www.w3.org/2000/svg" viewBox="0 0 50 24"  xmlns:v="https://vecta.io/nano"><path d="M7 2V1H5V0H1v1H0v4h1v1h2v1h2v1h1v1h1v1h1V2z" fill="#ff0"/><path d="M8 10V9H7v1h1zM7 8H6v1h1V8zM6 7H5v1h1V7zm2-4V2H7v1h1zM7 1H6v1h1V1z" fill="#d8d800"/><path d="M5 1V0H1v1H0v4h1v1h2v1h2V6h1V1z"/><path d="M1 1h4v1H1V1z" fill="#666"/></svg>
